!!!SOCIAL_FUNCTION:	deer dance songs
!!!PDT:	1932
!!!OTL: No_78_The_Redbird_and_His_Shadow.krn
!!!REG: Southwest
!!!LANG: Non-Tone
!!!LING_GROUP: Yuman-Cochimi
**kern	**kern
*staff2	*staff1
=1-	=1-
*clefF4	*clefF4
*k[b-e-a-d-g-]	*k[b-e-a-d-g-]
*M3/4	*M3/4
2.r	2r
.	8r
.	8D-\
=2	=2
4GG-/	4A-\
4GG-/	4A-\
4GG-/	4A-\
=3||	=3||
*M2/4	*M2/4
4GG-/	8A-\L
.	8F\J
4GG-/	8F\L
.	8D-\J
=4!|:	=4!|:
4GG-/	2A-\
4GG-/	.
=5	=5
4GG-/	8A-\L
.	8F\J
4GG-/	8F\L
.	8E-\J
=6	=6
4GG-/	4F\
4r	8r
.	8F\
=7	=7
4GG-/	2A-\
4GG-/	.
=8	=8
4GG-/	4F\
4GG-/	4F\
=9	=9
4GG-/	8F\L
.	8D-\J
4GG-/	4D-\
=10	=10
4GG-/	4D-\
4GG-/	8D-\L
.	8D-\J
=11	=11
4GG-/	4D-\
4GG-/	8D-\L
.	8D-\J
=12||	=12||
*M3/4	*M3/4
4GG-/	4D-\
4r	4r
4r	8r
.	8D-\
=13||	=13||
*M2/4	*M2/4
4GG-/	4F\
4GG-/	4D-\
=14	=14
4GG-/	4D-\
4GG-/	4D-\
=15	=15
4GG-/	4D-\
4r	8r
.	8D-\
=16	=16
4GG-/	4F\
4GG-/	4D-\
=17	=17
4GG-/	4D-\
4GG-/	8D-\L
.	8D-\J
=18	=18
4GG-/	4D-\
4r	8r
.	8BB-/
=19	=19
2r	4D-\
.	8D-\L
.	8D-\J
=20	=20
2r	4D-\
.	4D-\
=21||	=21||
*M3/4	*M3/4
2.r	4D-\
.	4r
.	8r
.	8F\
=22||	=22||
*M2/4	*M2/4
2r	4.A-\
.	8F\
=23	=23
2r	4F\
.	8F\L
.	8D-\J
=24	=24
2r	8F\L
.	8D-\J
.	8D-\
.	8r
=25	=25
2r	4.A-\
.	8F\
=26	=26
2r	4F\
.	8F\L
.	8D-\J
=27	=27
2r	4F\
.	8D-\L
.	8D-\J
=28	=28
2r	4D-\
.	8D-\L
.	8D-\J
=29	=29
2r	4D-\
.	4D-\
=30||	=30||
*M3/4	*M3/4
2.r	4D-\
.	4r
.	8r
.	8D-\
=31||	=31||
*M2/4	*M2/4
2r	4F\
.	4D-\
=32	=32
2r	4D-\
.	8D-\L
.	8D-\J
=33	=33
2r	4D-\
.	8r
.	8D-\
=34	=34
2r	4F\
.	4D-\
=35	=35
2r	4D-\
.	8D-\L
.	8D-\J
=36	=36
2r	4D-\
.	8r
.	8GG-/
=37	=37
2r	4D-\
.	8D-\L
.	8D-\J
=38	=38
2r	4D-\
.	4D-\
=39	=39
2r	4D-\
.	4r
==:|!	==:|!
*-	*-
